common/src/main/resources/icons/plugins/appcode/AppCodeProject.svg

<svg xmlns="http://www.w3.org/2000/svg" width="16" height="16" fill="#82AAFF" data-big="true" viewBox="0 0 24 24"><path d="M23 11h-5a1 1 0 0 0-1 1v9a1 1 0 0 0 1 1h5a1 1 0 0 0 1-1v-9a1 1 0 0 0-1-1m0 9h-5v-7h5zM20 2H2C.89 2 0 2.89 0 4v12a2 2 0 0 0 2 2h7v2H7v2h8v-2h-2v-2h2v-2H2V4h18v5h2V4a2 2 0 0 0-2-2"/></svg>

<!--
  - The MIT License (MIT)
  -
  - Copyright (c) 2015-2024 Elior "Mallowigi" Boukhobza
  -
  - Permission is hereby granted, free of charge, to any person obtaining a copy
  - of this software and associated documentation files (the "Software"), to deal
  - in the Software without restriction, including without limitation the rights
  - to use, copy, modify, merge, publish, distribute, sublicense, and/or sell
  - copies of the Software, and to permit persons to whom the Software is
  - furnished to do so, subject to the following conditions:
  -
  - The above copyright notice and this permission notice shall be included in all
  - copies or substantial portions of the Software.
  -
  - THE SOFTWARE IS PROVIDED "AS IS", WITHOUT WARRANTY OF ANY KIND, EXPRESS OR
  - IMPLIED, INCLUDING BUT NOT LIMITED TO THE WARRANTIES OF MERCHANTABILITY,
  - FITNESS FOR A PARTICULAR PURPOSE AND NONINFRINGEMENT. IN NO EVENT SHALL THE
  - AUTHORS OR COPYRIGHT HOLDERS BE LIABLE FOR ANY CLAIM, DAMAGES OR OTHER
  - LIABILITY, WHETHER IN AN ACTION OF CONTRACT, TORT OR OTHERWISE, ARISING FROM,
  - OUT OF OR IN CONNECTION WITH THE SOFTWARE OR THE USE OR OTHER DEALINGS IN THE
  - SOFTWARE.
  -->


<svg data-big="true" xmlns="http://www.w3.org/2000/svg" version="1.1" width="16px" height="16px" fill="#82AAFF"
     viewBox="0 0 24 24">
  <path
    d="M23,11H18A1,1 0 0,0 17,12V21A1,1 0 0,0 18,22H23A1,1 0 0,0 24,21V12A1,1 0 0,0 23,11M23,20H18V13H23V20M20,2H2C0.89,2 0,2.89 0,4V16A2,2 0 0,0 2,18H9V20H7V22H15V20H13V18H15V16H2V4H20V9H22V4C22,2.89 21.1,2 20,2Z"/>
</svg>
